X:172 
T:Padraig O'Keeffe's Slide (2) 
B:CRE3.056 (SleamhnÃÂÃÂÃÂÃÂ¥n PhÃÂÃÂÃÂÃÂ¥draig UÃÂÃÂÃÂÃÂ­ Chaoimh 2)
R:slide 
F:file ID: cre.3/172padr_ok2
N:This is O'Keeffe's "florid" version of "The Bank of Turf".
Q:180
M:12/8
L:1/8
K:D
ABA DFA BAF DFA|d3 ede fef def|
[1 "3"g2g gab afd Bcd|ef/e/c efd cBA Bcd:|
[2 "3a"g2g gab afd Bdd|ABd efe d2d||
dcd|"5"ef/e/A efg f2d fga|fgg eff edB ABd|
"7"ef/e/A efg f2d fga|gfe dcB A2A ABd|
"9"ef/e/A ef/e/A f2A f2A|f2A f2A edB ABd||
"11"ef/e/A efg f2d fga|gfe dcB AFA Bcd|| 

%%%

